packages/kaspersky-hexa-ui-icons/src/iconsSVGs/32/Weight.svg

<svg width="32" height="32" viewBox="0 0 32 32" fill="none" xmlns="http://www.w3.org/2000/svg">
<path fill-rule="evenodd" clip-rule="evenodd" d="M11 7C11 8.12561 11.3719 9.16434 11.9996 10H9.69424C8.22773 10 6.97616 11.0602 6.73506 12.5068L4.40173 26.5068C4.09696 28.3354 5.50709 30 7.36091 30H24.6391C26.4929 30 27.903 28.3354 27.5983 26.5068L25.2649 12.5068C25.0238 11.0602 23.7723 10 22.3057 10H20.0004C20.628 9.16434 21 8.12561 21 7C21 4.23858 18.7614 2 16 2C13.2386 2 11 4.23858 11 7ZM16 4C14.3431 4 13 5.34315 13 7C13 8.30622 13.8348 9.41746 15 9.82929V8C15 7.44772 15.4477 7 16 7C16.5523 7 17 7.44772 17 8V9.82929C18.1652 9.41746 19 8.30622 19 7C19 5.34315 17.6568 4 16 4ZM9.69424 12C9.2054 12 8.78821 12.3534 8.70785 12.8356L6.37452 26.8356C6.27293 27.4451 6.74297 28 7.36091 28H24.6391C25.257 28 25.7271 27.4451 25.6255 26.8356L23.2921 12.8356C23.2118 12.3534 22.7946 12 22.3057 12H9.69424Z" fill="black"/>
</svg>

<svg xmlns="http://www.w3.org/2000/svg" width="32" height="32" fill="none" viewBox="0 0 32 32"><path fill="#000" fill-rule="evenodd" d="M11.0002 7c0 1.1256.3719 2.1643.9996 3H9.6944c-1.4665 0-2.718 1.0602-2.9591 2.5068l-2.3334 14C4.0971 28.3354 5.5073 30 7.3611 30h17.2782c1.8538 0 3.2639-1.6646 2.9591-3.4932l-2.3333-14C25.024 11.0602 23.7724 10 22.3059 10h-2.3054a4.978 4.978 0 0 0 .9997-3c0-2.7614-2.2386-5-5-5s-5 2.2386-5 5m5-3c-1.6569 0-3 1.3431-3 3 0 1.3062.8348 2.4175 2 2.8293V8c0-.5523.4477-1 1-1s1 .4477 1 1v1.8293c1.1652-.4118 2-1.523 2-2.8293 0-1.6569-1.3432-3-3-3m-6.3058 8a1 1 0 0 0-.9864.8356l-2.3333 14C6.2731 27.4451 6.7432 28 7.3611 28h17.2782c.6179 0 1.0879-.5549.9863-1.1644l-2.3333-14A1 1 0 0 0 22.3059 12z"/></svg>
